resources/icons/16px/header-two.svg

<svg xmlns="http://www.w3.org/2000/svg" viewBox="0 0 16 16">
  <path d="M1 2c-.56 0-1 .45-1 1v10c0 .54.45 1 1 1 .56 0 1-.45 1-1V9h4v4c0 .54.45 1 1 1 .56 0 1-.45 1-1V3c0-.54-.45-1-1-1-.56 0-1 .45-1 1v4H2V3c0-.54-.45-1-1-1m12.154 11.944.016-.014c.18-.14.36-.28.57-.42l.63-.45c.21-.16.41-.33.61-.51s.37-.38.52-.59.28-.45.37-.7.13-.54.13-.85c0-.25-.04-.51-.12-.79-.07-.29-.2-.55-.39-.79a2.2 2.2 0 0 0-.73-.6c-.29-.15-.66-.23-1.11-.23-.4 0-.76.08-1.07.23-.31.16-.58.37-.79.62-.22.27-.38.59-.49.96s-.16.77-.16 1.2h1.19c.01-.27.03-.53.08-.77.04-.24.11-.45.21-.62.09-.18.22-.32.38-.42s.35-.15.59-.15c.26 0 .47.05.63.14.15.09.28.21.37.35q.135.21.18.45c.03.16.05.31.05.45-.01.31-.08.58-.22.82-.14.23-.32.45-.53.65-.22.21-.46.39-.71.57q-.39.27-.75.54c-.5.36-.89.78-1.17 1.27S11.01 15.35 11 16h4.99v-1.14h-3.55c.05-.17.14-.33.27-.49.126-.145.28-.281.444-.426"/>
</svg>

<svg width="16" height="16" viewBox="0 0 16 16" fill="none" xmlns="http://www.w3.org/2000/svg">
<path fill-rule="evenodd" clip-rule="evenodd" d="M1 2C0.44 2 0 2.45 0 3V13C0 13.54 0.45 14 1 14C1.56 14 2 13.55 2 13V9H6V13C6 13.54 6.45 14 7 14C7.56 14 8 13.55 8 13V3C8 2.46 7.55 2 7 2C6.44 2 6 2.45 6 3V7H2V3C2 2.46 1.55 2 1 2ZM13.1541 13.9441L13.17 13.93C13.35 13.79 13.53 13.65 13.74 13.51L14.37 13.06C14.58 12.9 14.78 12.73 14.98 12.55C15.18 12.37 15.35 12.17 15.5 11.96C15.65 11.75 15.78 11.51 15.87 11.26C15.96 11.01 16 10.72 16 10.41C16 10.16 15.96 9.9 15.88 9.62C15.81 9.33 15.68 9.07 15.49 8.83C15.31 8.59 15.06 8.39 14.76 8.23C14.47 8.08 14.1 8 13.65 8C13.25 8 12.89 8.08 12.58 8.23C12.27 8.39 12 8.6 11.79 8.85C11.57 9.12 11.41 9.44 11.3 9.81C11.19 10.18 11.14 10.58 11.14 11.01H12.33C12.34 10.74 12.36 10.48 12.41 10.24C12.45 10 12.52 9.79 12.62 9.62C12.71 9.44 12.84 9.3 13 9.2C13.16 9.1 13.35 9.05 13.59 9.05C13.85 9.05 14.06 9.1 14.22 9.19C14.37 9.28 14.5 9.4 14.59 9.54C14.68 9.68 14.74 9.83 14.77 9.99C14.8 10.15 14.82 10.3 14.82 10.44C14.81 10.75 14.74 11.02 14.6 11.26C14.46 11.49 14.28 11.71 14.07 11.91C13.85 12.12 13.61 12.3 13.36 12.48C13.1 12.66 12.85 12.84 12.61 13.02C12.11 13.38 11.72 13.8 11.44 14.29C11.16 14.78 11.01 15.35 11 16H15.99V14.86H12.44C12.49 14.69 12.58 14.53 12.71 14.37C12.8359 14.2247 12.99 14.0888 13.1541 13.9441Z" fill="black"/>
</svg>
